build/system/UnlinkOutline.svg

<svg xmlns="http://www.w3.org/2000/svg" fill="none" viewBox="0 0 24 24" focusable="false"><path d="M0 0H24V24H0z"/><path fill="#74767B" fill-rule="evenodd" d="M12.0129 4.50315C14.0241 2.49195 17.2849 2.49195 19.2961 4.50315C21.3073 6.51435 21.3073 9.77515 19.2961 11.7863L18.2728 12.7508C18.019 13.0046 17.6074 13.0046 17.3536 12.7508C17.0997 12.4969 17.0997 12.0854 17.3536 11.8315L18.3769 10.8671C19.8804 9.36359 19.8804 6.92591 18.3769 5.42239C16.8734 3.91887 14.4357 3.91887 12.9322 5.42239L11.9089 6.38682C11.655 6.64066 11.2435 6.64066 10.9896 6.38682C10.7358 6.13298 10.7358 5.72142 10.9896 5.46758L12.0129 4.50315ZM6.71118 5.83531C6.45734 5.58147 6.04578 5.58147 5.79194 5.83531C5.5381 6.08915 5.5381 6.50071 5.79194 6.75455L17.2881 18.2508C17.542 18.5046 17.9535 18.5046 18.2074 18.2508C18.4612 17.9969 18.4612 17.5854 18.2074 17.3315L6.71118 5.83531ZM4.57969 19.2196C6.59089 21.2308 9.85169 21.2308 11.8629 19.2196L12.7416 18.3664C12.9955 18.1126 12.9955 17.701 12.7416 17.4472C12.4878 17.1934 12.0762 17.1934 11.8224 17.4472L10.9437 18.3003C9.44013 19.8039 7.00245 19.8039 5.49893 18.3003C3.99541 16.7968 3.99541 14.3591 5.49893 12.8556L6.37768 12.0025C6.63152 11.7486 6.63152 11.3371 6.37768 11.0832C6.12384 10.8294 5.71228 10.8294 5.45844 11.0832L4.57969 11.9364C2.56849 13.9476 2.56849 17.2084 4.57969 19.2196Z"/></svg>

<svg xmlns="http://www.w3.org/2000/svg" fill="none" viewBox="0 0 24 24" focusable="false"><path fill="#74767B" fill-rule="evenodd" d="M19.29 4.5a5.15 5.15 0 0 0-7.28 0l-1.03.96c-.25.26-.25.67 0 .92.26.26.67.26.92 0l1.03-.96a3.833 3.833 0 0 1 5.44 0 3.833 3.833 0 0 1 0 5.44l-1.02.97a.64.64 0 0 0 0 .92c.25.25.66.25.92 0l1.02-.97a5.15 5.15 0 0 0 0-7.28M6.71 5.83a.66.66 0 0 0-.92 0 .64.64 0 0 0 0 .92l11.49 11.5c.26.25.67.25.92 0a.64.64 0 0 0 0-.92zM4.57 19.21a5.14 5.14 0 0 0 7.29 0l.88-.85c.25-.25.25-.66 0-.92a.66.66 0 0 0-.92 0l-.88.86a3.863 3.863 0 0 1-5.45 0 3.863 3.863 0 0 1 0-5.45l.88-.85a.64.64 0 0 0 0-.92.64.64 0 0 0-.92 0l-.88.85a5.15 5.15 0 0 0 0 7.28"/></svg>
